/* XPM */
static const char *favicon[] = {
/* columns rows colors chars-per-pixel */
"64 64 55 1 ",
"  c #1C5EB5",
". c #1D60B7",
"X c #1E62BB",
"o c #2066BC",
"O c #1F67C2",
"+ c #2067C3",
"@ c #226BC5",
"# c #236EC8",
"$ c #2770C5",
"% c #2B74C6",
"& c #2674CC",
"* c #2976CD",
"= c #2B79CE",
"- c #307ACD",
"; c #2C7DD1",
": c #317ED1",
"> c #2F80D2",
", c #3484D3",
"< c #3A85D3",
"1 c #3F8BD6",
"2 c #428AD5",
"3 c #4A8FD7",
"4 c #4A90D7",
"5 c #4C92D8",
"6 c #5296DA",
"7 c #5698DB",
"8 c #5B9CDC",
"9 c #72A5DE",
"0 c #6EA7E0",
"q c #6FA8E0",
"w c #75AAE1",
"e c #7DB0E2",
"r c #84B4E5",
"t c #8AB7E5",
"y c #8FBAE7",
"u c #92BBE7",
"i c #99BFE7",
"p c #93BDE8",
"a c #98BFE8",
"s c #9DC2E9",
"d c #A4C6EA",
"f c #AACBEC",
"g c #B3D1EE",
"h c #BED7F1",
"j c #C5DCF2",
"k c #CADFF3",
"l c #CDE0F4",
"z c #D5E4F5",
"x c #DEEAF7",
"c c #E3EEF8",
"v c #EBF3FA",
"b c #F1F6FC",
"n c #F5F8FC",
"m c #FFFFFF",
"M c None",
/* pixels */
"MMMMMMMMMMMMMMMMMMMMMMMMMM%-%----==-%-MMMMMMMMMMMMMMMMMMMMMMMMMM",
"MMMMMMMMMMMMMMMMMMMMMM%------;-=--------=&MMMMMMMMMMMMMMMMMMMMMM",
"MMMMMMMMMMMMMMMMMMMM---=--:-;,,>,-,-:--:>*>>MMMMMMMMMMMMMMMMMMMM",
"MMMMMMMMMMMMMMMMM*>>=-,:,,,,,,,,,,,,,,:,>>>>,=%MMMMMMMMMMMMMMMMM",
"MMMMMMMMMMMMMMMM>>>>>,,,,,,,,,,,,,,,,,,,,,,>>>>>MMMMMMMMMMMMMMMM",
"MMMMMMMMMMMMMM=->>>>,,,,,,,,,,1,1,,1,,,,,,,,>>>>--MMMMMMMMMMMMMM",
"MMMMMMMMMMMMM--->>,,,,,,<<,111,,,1,,<,<,,,,,>>,,---MMMMMMMMMMMMM",
"MMMMMMMMMMM%-=::,,,,,,,,,,<,,,,11,1,,<,<,,,,,>,,,==-%MMMMMMMMMMM",
"MMMMMMMMMM%-;:,:,,,,,,,11,,,,,,1,1,,,,11,,,1,,,,,;:--%MMMMMMMMMM",
"MMMMMMMMM%-=::,,,,,11,,1,,1,11,,,,,1,1,,,,,,,,,,,,,=;-%MMMMMMMMM",
"MMMMMMMM%=-:-,,,,,1,,1,,,,,1,,1,,1,,,,,,,,,11,1,,,-,:=-%MMMMMMMM",
"MMMMMMM%=-::,,,,,,,,,,,,,,,,,,,,,,,,,,1,1,,,,,,,,,,,,:=-%MMMMMMM",
"MMMMMMM-=::>,,,,,,,,,,,,,1,,,,,,,,,,,,1,,,,,,1,,,,,,::==-MMMMMMM",
"MMMMMM====,,,,,,,,,1,,,1,,,,,,,,,,,,,,,,,,,,,,,,,,,,,:,=;%MMMMMM",
"MMMMM%==,,>,,,,,,,,,,,,,,,,,,,,,,1,,,,,,,,,,,,,,,,,,:,,===%MMMMM",
"MMMMM=-==,,,,,,,,,,,,,,,,,,,,,,,,,,,,,,,,,,,,,,,,,,,,,,,:==MMMMM",
"MMMM%=::>,,>,,,,,qgjjjjjjjjjjjjjjjjjjjjjjjjjjg0,,,,,>,>>>==%MMMM",
"MMM$==;:>>,,,,,,fnmmmmmmmmmmmmmmmmmmmmmmmmmmmmmf,,,,,,,>>,==%MMM",
"MMM%==::,,,,,>,emmmmmmmmmmmmmmmmmmmmmmmmmmmmmmmme,,,,,>,>>==*MMM",
"MMM===;,>,>>,,,jmmh00000w00w000ww000w00w00w00hmmj,>,>,,>,=-=%MMM",
"MM$=-;,,>,,,,>,cmm61888888888888878888888888<6mmc,,>,>,,,;;==&MM",
"MM%*;:;;>,>,>,,cmm6wmmmmmmmnnmmmmmmmmmmnmmve,5mmc,>,>,>>;,:=*%MM",
"M$==;>,>,>,,>,,cmm5emmmmmmmmmmmmmmmmmmmmmj5>>5mmc,>>>>,,,;,;==$M",
"M$===;;,>>>>>>,cmm5wmmmmmmmmmmmmmmmmmmmbe,>,;5mmc,,>>,>>,>:==*$M",
"M$*;;;>>>>>>>>,cmn5emmmmmmmmmmmmmmmmmmj5>>>>>4mmx>>>>>>>;>;;=*&M",
"M**=;>>>>>>>>>>cmm5wmmmmmmmmmmmmmmmmbr,>>>>>>4mmc>>>>>>>;,,;==*M",
"+&=;;;>>>>>>>>,cmm59mmmmmmmmmmmmmmmk5>;,>>>>>5nmc,>>>>>>>;;;;=&o",
"$&*;;>>>>>>>>>,cmm5emmmmmmmmmmmmmnt,>>>;>>>>>5mmc>>>>>>>>>>;=**$",
"+*==>>>;>>>;>>>cmm5wmmmmmmmmmmmml5>;;;>>>;>>;4mmc>>>>>;>;>>;;**@",
"o*==;;>;>;>;>;>cmm5wmmmmmmmmmmny,;>>>>>;;>>;>4mmc,>>;>>;>>;;=**@",
"#**=;;>>;;>>;;>xmn5wmmmmmmmmmz6;>;;>;>;;;>;>;4mmx>>>;>;>;;>;=*&@",
"@**==>;;;>;;;>>xmm5wmmmmmmmnp,;;;>;>;;;>;>;;>4nmx>;>;>;;;>>==**@",
"#&&&;;;;;>;;;;>cmm4wmmmmmnz6;;;;;>;;;>;;;;;;;4mmc>;;;;>;>;;;&&&#",
"+&;;;;;;;;;;;;>cmm4wmmmmns>;;;;;;;;;;;;;;;;;;4mmc;;;;;;;;;;;;&&O",
"@&&;;;;;;;;;;;>cmm59mmmz8;;;;;;;;;;;;;;;;=;;;4mmc>;;;;;;;;;;;&&#",
"O#&&;&;;;;;;;;;xmn3wmni,;;;;;;=;;;;;;;;;;;;;;4nmc;;;;;;;;;&;&&&O",
"O&&&;;;;;;*;;;;xmm39x8;;=;=;=;;;;;;;&;;&;=;;;3mmc;;=;=;*;*;*;&&O",
"O#&&&;&;;;;;;&;xmm52:;;=;=;=;;*;;*;;;;;;;==;;3nmc;==;;;;;;;;&&#O",
"M#&&&;;;;;&;;;>lmmy<<<<,<<,,<<<<,,1,1,>,<<<<<ummz;===;***;***&#M",
"M#&&;&&;&;&;;;;tmmmnbnnnnvnnbbnbbbbbbbbvbbbbbmmmp;=;;**;;*==&&OM",
"MO#&**=;;&;;;&;>lmmmmmmmmmmmmmmmmmmmmmmmmmmmmmmz>;;&*;*;*;&&&#OM",
"MX&&&&**;&;&&;;&,scbbvbbbbnmmmmmmmmmmnbbvbbbvxs,;&;;;*;*&*;&&#OM",
"MM$O&***&;&;;&;;=*;:<::<,:dmmmmmmmmmmd-<:,,->;*;*&&;&;;*;&&&&@MM",
"MMO&&***;&;;&;&;*=*;*=**=*immmmmmmmmms====*;*;**&;;&;&**&*&&$OMM",
"MMM&#&&&&;&&&;;**=***;:<<<dmmmmmmmmmmd<<2:**;***;;&;;&;;*&&#OMMM",
"MMMO#&&*&;&;;&&******innnnmmmmmmmmmmmmnnnni*****&&;&**&&*&&&OMMM",
"MMMXO#&&;&&;&&*******cmmmmmmmmmmmmmmmmmmmmc*****;&&&&=&&&&&OXMMM",
"MMMMO##&&&&&;&**&****9lzzzzzzzzlzzzzzzzzzl9&**&*&&;&***&&#$OMMMM",
"MMMMM@$&&&&*****;&&&&&&;&;==;**;*;*;;**;&;;&;&;&&&&&*&&&##@MMMMM",
"MMMMMXO&&&&*&&&&&&&;&;;&&&*&&**&*&&&&*&&&&&&*&&&&;&;*&&&&OXMMMMM",
"MMMMMMO@#&&&*&=&&&&*&;&&&=&&&&*&&&&*&&&*&&;&&&&&&;&&&&&&OOMMMMMM",
"MMMMMMM+O&#&&&*&*&*&&&&&&&&&*&&*&*&*&*&*&;&&&&**&&&&&###OMMMMMMM",
"MMMMMMM.O&&&&&&&&&&*&&&*&&&&&&&&&*&&&*&&&&&&*&&&&&&&&##OXMMMMMMM",
"MMMMMMMMXOO&&&&&&&&&&&&&&&&&&&&&&&&&&&&&&&&&&&&&&&&##OOXMMMMMMMM",
"MMMMMMMMMXOO&&&&&&&&*&&&&&&&&*&*&&&&&&&&&&&&&&&&&&#&#OXMMMMMMMMM",
"MMMMMMMMMMOOOO&O#&&&&&#&&;&&&&&&&&&&&&*&*&&&&&#&&##OOOMMMMMMMMMM",
"MMMMMMMMMMM O@###&#&&#&&#&&&&&&#&&&&&&&&&&#&&#&###@O MMMMMMMMMMM",
"MMMMMMMMMMMMMX+####&#&&&&&&&&&&&&&&&&&#&&&&#&##@@@XMMMMMMMMMMMMM",
"MMMMMMMMMMMMMMXO@@###&#&&&&##&&&&&&&&&&##&&###@@OXMMMMMMMMMMMMMM",
"MMMMMMMMMMMMMMMMXO@#######&#&###&#####&#####@@OXMMMMMMMMMMMMMMMM",
"MMMMMMMMMMMMMMMMM XO+@#@################@@@OOX MMMMMMMMMMMMMMMMM",
"MMMMMMMMMMMMMMMMMMMMOOO+###+###########+@@OXMMMMMMMMMMMMMMMMMMMM",
"MMMMMMMMMMMMMMMMMMMMMM OOOO++O+O#+OOOO+OX MMMMMMMMMMMMMMMMMMMMMM",
"MMMMMMMMMMMMMMMMMMMMMMMMMMXXXXOXXOXXXXMMMMMMMMMMMMMMMMMMMMMMMMMM"
};
